!! J.S. Bach "Chaconne" from Partita No. 2, for solo violin, BWV 1004.
!! From 'Neue Ausgabe Saemtlicher Werke' Serie VI: Kammermusikwerke,
!! Band 1 ('Werke fuer Violine') Baerenreiter Kassel (Basel) 1958; pp.35-41
!! This file has been error-checked using the double-entry method.
!! NOTE: The 'monophonic' score has been expanded to a four-voice
!!       format to simplify the encoding of multiple stops.
!! NOTE: This encoding entails a considerable amount of interpretation
!!       of the voicing of the 'parts'.
**kern	**kern	**kern	**kern
*M3/4	*M3/4	*M3/4	*M3/4
=1	=1	=1	=1
4r	4r	4r	4r
2d	2f	2r	4.a
.	.	.	8a
=2	=2	=2	=2
4d	4g	4b-	4ee
2c#	2g	2a	4.ee
.	.	.	8ee
=3	=3	=3	=3
4d	4f	4a	4ff
2B-	2f	2r	4.dd
.	.	.	8cc
=4	=4	=4	=4
4G	4g	2.r	4b-
4A	4f	.	4a
4r	4c#	.	16g
.	.	.	{16f
.	.	.	16e
.	.	.	16f}
=5	=5	=5	=5
4r	8d	2.r	16g
.	.	.	{16e
.	8r	.	16f
.	.	.	16d}
2d	2f	.	4.a
.	.	.	8a
=6	=6	=6	=6
4d	4g	4b-	4ee
2c#	2g	2a	4.ee
.	.	.	8ee
=7	=7	=7	=7
4d	4f	4a	4ff
2B-	2f	2r	4.dd
.	.	.	8dd
=8	=8	=8	=8
4G	4e	4dd	4bb-
8.A	8.e	8.cc#	8.aa
16r	16r	16r	32gg
.	.	.	32ff
4r	4r	4r	8.gg
.	.	.	16ee
=9	=9	=9	=9
2.r	8.d	8.dd	8.ff
.	16e	16r	16r
.	8.f	2r	2r
.	32g	.	.
.	32a	.	.
.	8.b-	.	.
.	16a	.	.
=10	=10	=10	=10
8d	8.g	8b-	8ee
8r	.	8r	8r
.	16f	.	.
8c#	8.g	8a	8e
4.r	.	4.r	4.r
.	16b-	.	.
.	8.a	.	.
.	16g	.	.
=11	=11	=11	=11
8d	8.f	8a	8ee
8r	.	8r	8r
.	16e	.	.
8B-	8.f	2r	8.dd
8r	.	.	.
.	16a	.	16ff
8.r	8.g	.	8.ee
16G	16f	.	16dd
=12	=12	=12	=12
8A	8.e	2r	8dd
8r	.	.	8r
.	16d	.	.
4r	8.e	.	8cc#
.	.	.	8r
.	16g	.	.
8.r	8.f	8.r	8.r
16A	16E	16cc#	16aa
=13	=13	=13	=13
8d	8.e	8dd	8ff
8r	.	8r	8r
.	16e	.	.
2r	8.f	2r	2r
.	32g	.	.
.	32a	.	.
.	8.b-	.	.
.	16a	.	.
=14	=14	=14	=14
8d	8.g	8b-	8ee
8r	.	8r	8r
.	16f	.	.
8c#	8.g	8a	8ee
4.r	.	4.r	4.r
.	16b-	.	.
.	8.a	.	.
.	16g	.	.
=15	=15	=15	=15
8d	8.f	8a	8ee
8r	.	8r	8r
.	16e	.	.
8B-	8.f	2r	8.dd
8r	.	.	.
.	16a	.	16ff
8.r	8.g	.	8.ee
16B-	16e	.	16cc#
=16	=16	=16	=16
8.A	8.f	2.r	8.dd
16G	16g	.	16ee
2A	2e	.	{4dd
.	.	.	8.cc#}
.	.	.	16dd
=17	=17	=17	=17
8d	8d	2r	8.dd
8r	8r	.	.
.	.	.	16ee
2r	2r	.	8.ff
.	.	.	32gg
.	.	.	32aa
.	.	8.r	8.bb-
.	.	16dd	16ff
=18	=18	=18	=18
2.r	2.r	4cc#	8.ee
.	.	.	16bb-
.	.	4ccn	8.aa
.	.	.	16gg
.	.	8.r	8.aa
.	.	16cc	16ff#
=19	=19	=19	=19
2.r	2.r	4bn	8.gg
.	.	.	16ffn
.	.	4b-	8.ee
.	.	.	32dd
.	.	.	32cc#
.	.	8.r	8.dd
.	.	16b-	16ee
=20	=20	=20	=20
2.r	2.r	8.a	8.ff
.	.	16bn	16gg
.	.	8.cc#	8.ee
.	.	16dd	16ff
.	.	8.ee	8.gg
.	.	16cc#	16ee
=21	=21	=21	=21
2.r	2.r	8.dd	8.ff
.	.	16r	32dd
.	.	.	32ee
.	.	4r	8.ff
.	.	.	32gg
.	.	.	32aa
.	.	8.r	8.bb-
.	.	16dd	16ff
=22	=22	=22	=22
2.r	2.r	4cc#	8.ee
.	.	.	16bb-
.	.	4ccn	8.aa
.	.	.	16gg
.	.	8.r	8.aa
.	.	16cc	16ff#
=23	=23	=23	=23
2r	2.r	4bn	8.gg
.	.	.	16ffn
.	.	4b-	8.ee
.	.	.	32dd
.	.	.	32cc#
8.r	.	8.r	8.dd
16g#	.	16dd	16ee
=24	=24	=24	=24
4a	2.r	4dd	8.ff
.	.	.	16gg
4a	.	4ee	8.dd
.	.	.	32cc#
.	.	.	32bn
8.r	.	4r	8.cc#
16A	.	.	16gn
=25	=25	=25	=25
8d	2.r	2.r	8f
8r	.	.	8ff
2r	.	.	8ee
.	.	.	8dd
.	.	.	8cc#
.	.	.	8dd
=26	=26	=26	=26
8d	2.r	2.r	8g
8r	.	.	{16a
.	.	.	16b-}
2r	.	.	8c#
.	.	.	8b-
.	.	.	8a
.	.	.	8g
=27	=27	=27	=27
8d	2.r	2.r	8f
8r	.	.	{16g
.	.	.	16a}
2r	.	.	8B-
.	.	.	8d
.	.	.	8g
.	.	.	{16dd
.	.	.	16cc#}
=28	=28	=28	=28
8r	2.r	2.r	8dd
8G	.	.	8f
8A	.	.	16e
.	.	.	{16f
4.r	.	.	16g}
.	.	.	16b-
.	.	.	16a
.	.	.	16g
.	.	.	16f
.	.	.	16e
=29	=29	=29	=29
16d	2.r	2.r	16f
8.r	.	.	{16a
.	.	.	16dd}
.	.	.	16ff
2r	.	.	{16ff
.	.	.	16ee
.	.	.	16gg
.	.	.	16ff
.	.	.	16ee
.	.	.	16dd
.	.	.	16cc#}
.	.	.	16dd
=30	=30	=30	=30
2.r	2.r	2.r	16g
.	.	.	16b-
.	.	.	16f#
.	.	.	16g
.	.	.	{16c#
.	.	.	16e
.	.	.	16g}
.	.	.	16b-
.	.	.	16a
.	.	.	16g
.	.	.	16ee
.	.	.	16g
=31	=31	=31	=31
2.r	2.r	2.r	16fn
.	.	.	16c#
.	.	.	16d
.	.	.	16A
.	.	.	{16B-
.	.	.	16d
.	.	.	16g}
.	.	.	16a
.	.	.	16b-
.	.	.	16ee-
.	.	.	16cc#
.	.	.	16dd
=32	=32	=32	=32
2.r	2.r	2.r	{16g#
.	.	.	16bn
.	.	.	16dd}
.	.	.	16ff
.	.	.	16een
.	.	.	16ggn
.	.	.	16cc#
.	.	.	16dd
.	.	.	{16A
.	.	.	16e
.	.	.	16dd}
.	.	.	16cc#
=33	=33	=33	=33
2.r	2.r	2.r	8dd
.	.	.	8ff
.	.	.	8bb-
.	.	.	8aa
.	.	.	8gg#
.	.	.	8d
=34	=34	=34	=34
2.r	2.r	2.r	8c#
.	.	.	8ee
.	.	.	8aa
.	.	.	8ggn
.	.	.	8ff#
.	.	.	8cn
=35	=35	=35	=35
2.r	2.r	2.r	8Bn
.	.	.	8dd
.	.	.	8gg
.	.	.	8ffn
.	.	.	8ee
.	.	.	8B-
=36	=36	=36	=36
2.r	2.r	2.r	16A
.	.	.	16ff
.	.	.	16ee
.	.	.	16dd
.	.	.	8cc#
.	.	.	8a
.	.	.	8ee
.	.	.	8g
=37	=37	=37	=37
2.r	2.r	2.r	16f
.	.	.	16d
.	.	.	16f
.	.	.	16a
.	.	.	{16dd
.	.	.	16ff
.	.	.	16bb-}
.	.	.	16aa
.	.	.	16gg#
.	.	.	16bbn
.	.	.	16gg#
.	.	.	16ee
=38	=38	=38	=38
2.r	2.r	2.r	{16cc#
.	.	.	16ee
.	.	.	16aa}
.	.	.	16ggn
.	.	.	16ff#
.	.	.	16aa
.	.	.	16ff#
.	.	.	16ccn
.	.	.	16a
.	.	.	16f#
.	.	.	16d
.	.	.	16c
=39	=39	=39	=39
2.r	2.r	2.r	{16Bn
.	.	.	16d
.	.	.	16g}
.	.	.	16f#
.	.	.	16g
.	.	.	{16ee-
.	.	.	16dd
.	.	.	16cc#}
.	.	.	{16bb-
.	.	.	16aa
.	.	.	16gg#}
.	.	.	16aa
=40	=40	=40	=40
2.r	2.r	2.r	16ff
.	.	.	16een
.	.	.	16dd
.	.	.	16ccn
.	.	.	{16b-
.	.	.	16a
.	.	.	16g#}
.	.	.	16a
.	.	.	16c#
.	.	.	16gn
.	.	.	16fn
.	.	.	16e
=41	=41	=41	=41
2.r	2.r	2.r	16f
.	.	.	16d
.	.	.	16e
.	.	.	16f
.	.	.	16g
.	.	.	16a
.	.	.	16bn
.	.	.	16cc#
.	.	.	16dd
.	.	.	16f
.	.	.	16e
.	.	.	16d
=42	=42	=42	=42
2.r	2.r	2.r	{16A
.	.	.	16e
.	.	.	16dd}
.	.	.	16cc#
.	.	.	{16d
.	.	.	16f#
.	.	.	16a}
.	.	.	16ccn
.	.	.	16cc
.	.	.	16b-
.	.	.	16cc
.	.	.	16a
=43	=43	=43	=43
2.r	2.r	2.r	16b-
.	.	.	16g
.	.	.	16fn
.	.	.	16e-
.	.	.	16d
.	.	.	16c
.	.	.	16B-
.	.	.	16A
.	.	.	{16G
.	.	.	16g
.	.	.	16ee-}
.	.	.	16dd
=44	=44	=44	=44
2.r	2.r	2.r	16cc#
.	.	.	16een
.	.	.	16a
.	.	.	16g
.	.	.	16f
.	.	.	16dd
.	.	.	16en
.	.	.	16d
.	.	.	{16A
.	.	.	16e
.	.	.	16dd}
.	.	.	16cc#
=45	=45	=45	=45
2.r	2.r	2.r	{16gg
.	.	.	16ee
.	.	.	16ff}
.	.	.	16cc#
.	.	.	{16dd
.	.	.	16ccn
.	.	.	16b-
.	.	.	16a
.	.	.	16g
.	.	.	16f
.	.	.	16e
.	.	.	16d}
=46	=46	=46	=46
2.r	2.r	2.r	16c#
.	.	.	16b-
.	.	.	16a
.	.	.	16g
.	.	.	16f#
.	.	.	16d
.	.	.	16a
.	.	.	16d
.	.	.	16cn
.	.	.	16B-
.	.	.	16c
.	.	.	16A
=47	=47	=47	=47
2.r	2.r	2.r	{16B-
.	.	.	16G
.	.	.	16A
.	.	.	16B-
.	.	.	16c
.	.	.	16d
.	.	.	16e
.	.	.	16f#
.	.	.	16g
.	.	.	16a
.	.	.	16b-}
.	.	.	16a
=48	=48	=48	=48
2.r	2.r	2.r	16g#
.	.	.	16a
.	.	.	16e
.	.	.	16fn
.	.	.	16gn
.	.	.	{16c#
.	.	.	16d}
.	.	.	{16G#
.	.	.	16A}
.	.	.	16f
.	.	.	16e
.	.	.	16c#
=49	=49	=49	=49
2.r	2.r	2.r	16d
.	.	.	{16dd
.	.	.	16a
.	.	.	16g
.	.	.	16f
.	.	.	16e
.	.	.	16d
.	.	.	16cn
.	.	.	16B-}
.	.	.	16dd
.	.	.	16g
.	.	.	16f
=50	=50	=50	=50
2.r	2.r	2.r	16e
.	.	.	{16cc
.	.	.	16g
.	.	.	16f
.	.	.	16e
.	.	.	16d
.	.	.	16c
.	.	.	16B-
.	.	.	16A}
.	.	.	16cc
.	.	.	16f
.	.	.	16e-
=51	=51	=51	=51
2.r	2.r	2.r	16dd
.	.	.	{16b-
.	.	.	16f
.	.	.	16e
.	.	.	16d
.	.	.	16c
.	.	.	16B-
.	.	.	16A
.	.	.	16G}
.	.	.	16b-
.	.	.	16en
.	.	.	16d
=52	=52	=52	=52
2.r	2.r	2.r	16c#
.	.	.	16A
.	.	.	16c#
.	.	.	16e
.	.	.	16a
.	.	.	16e
.	.	.	16a
.	.	.	16cc#
.	.	.	16ee
.	.	.	16g
.	.	.	16a
.	.	.	16e
=53	=53	=53	=53
2.r	2.r	2.r	16f
.	.	.	16d
.	.	.	16f
.	.	.	16a
.	.	.	16dd
.	.	.	16a
.	.	.	16dd
.	.	.	16ff
.	.	.	16b-
.	.	.	{16gg
.	.	.	16aa
.	.	.	16bb-}
=54	=54	=54	=54
2.r	2.r	2.r	16ee
.	.	.	16c
.	.	.	16e
.	.	.	16g
.	.	.	16cc
.	.	.	16g
.	.	.	16cc
.	.	.	16ee
.	.	.	16a
.	.	.	{16ff
.	.	.	16gg
.	.	.	16aa}
=55	=55	=55	=55
2.r	2.r	2.r	16dd
.	.	.	16B-
.	.	.	16d
.	.	.	16f
.	.	.	16b-
.	.	.	16f
.	.	.	16b-
.	.	.	16dd
.	.	.	16g
.	.	.	{16ee
.	.	.	16ff
.	.	.	16gg}
=56	=56	=56	=56
2.r	2.r	2.r	16cc#
.	.	.	16a
.	.	.	16cc#
.	.	.	16ee
.	.	.	16aa
.	.	.	16ee
.	.	.	16aa
.	.	.	16ccc#
.	.	.	16eee
.	.	.	{16gg
.	.	.	16ff
.	.	.	16ee}
=57	=57	=57	=57
2.r	8dd	2.r	8ff
.	8a	.	8r
.	8d	.	8r
.	8dd	.	8ff
.	{16b-	.	8gg
.	16a	.	.
.	16b-}	.	8r
.	16g	.	.
=58	=58	=58	=58
2.r	8cc	2.r	8ee
.	8g	.	8r
.	8c	.	8r
.	8cc	.	8ee
.	16a	.	8ff
.	16g	.	.
.	16a	.	8r
.	16f	.	.
=59	=59	=59	=59
2.r	8b-	2.r	8dd
.	8f	.	8r
.	8B-	.	8r
.	8b-	.	8dd
.	{16g	.	8ee
.	16f}	.	.
.	{16g	.	8r
.	16e}	.	.
=60	=60	=60	=60
4r	{16f	4.r	8a
.	16e}	.	.
.	{16f	.	8dd
.	16d}	.	.
8A	8e	.	{16dd
.	.	.	16cc#}
4.r	4.r	8aa	{16dd
.	.	.	16bn}
.	.	8c#	{16aa
.	.	.	16gg}
.	.	8r	{16aa
.	.	.	16ee}
=61	=61	=61	=61
2.r	2.r	{16dd	8ff
.	.	16cc#	.
.	.	16dd}	8r
.	.	16a	.
.	.	{16f	8dd
.	.	16e	.
.	.	16f}	8r
.	.	16d	.
.	.	16B-	4r
.	.	16g	.
.	.	16dd	.
.	.	16bb-	.
=62	=62	=62	=62
2.r	2.r	{16ccn	8ee
.	.	16bn	.
.	.	16cc}	8r
.	.	16g	.
.	.	{16e	8cc
.	.	16d	.
.	.	16e}	8r
.	.	16c	.
.	.	16A	4r
.	.	16f	.
.	.	16cc	.
.	.	16aa	.
=63	=63	=63	=63
2.r	2.r	8dd	{16f
.	.	.	16e-}
.	.	8r	{16f
.	.	.	16d}
.	.	8b-	{16d
.	.	.	16c}
.	.	8r	{16d
.	.	.	16B-}
.	.	4r	16G
.	.	.	16en
.	.	.	16bn
.	.	.	16gg
=64	=64	=64	=64
2.r	2.r	2.r	16A
.	.	.	16e
.	.	.	16cc#
.	.	.	16gg
.	.	.	16A
.	.	.	16f
.	.	.	16dd
.	.	.	16ff
.	.	.	16A
.	.	.	16g
.	.	.	16cc#
.	.	.	16ee
=65	=65	=65	=65
2.r	2.r	16d	{16dd
.	.	8.r	32a
.	.	.	32g
.	.	.	16f}
.	.	.	16e
.	.	2r	16d
.	.	.	16c
.	.	.	16B-
.	.	.	16A
.	.	.	16B-
.	.	.	{32dd
.	.	.	32ccn
.	.	.	32b-
.	.	.	32a
.	.	.	32g
.	.	.	32f}
=66	=66	=66	=66
2.r	2.r	16c	{16e
.	.	8.r	32g
.	.	.	32f
.	.	.	16e}
.	.	.	16d
.	.	2r	16c
.	.	.	16B-
.	.	.	16A
.	.	.	16G
.	.	.	16A
.	.	.	{32cc
.	.	.	32b-
.	.	.	32a
.	.	.	32g
.	.	.	32f
.	.	.	32e-}
=67	=67	=67	=67
2.r	2.r	16B-	{16d
.	.	8.r	32f
.	.	.	32e-
.	.	.	16d}
.	.	.	16c
.	.	2r	16B-
.	.	.	32d
.	.	.	32c
.	.	.	16B-
.	.	.	16A
.	.	.	16G
.	.	.	{32b-
.	.	.	32a
.	.	.	32g
.	.	.	32f
.	.	.	32en
.	.	.	32d}
=68	=68	=68	=68
2.r	2.r	2.r	{32c#
.	.	.	32Bn
.	.	.	32A
.	.	.	32B
.	.	.	32c#
.	.	.	32d
.	.	.	32e
.	.	.	32f}
.	.	.	{32g
.	.	.	32a
.	.	.	32b-
.	.	.	32a
.	.	.	32g
.	.	.	32f
.	.	.	32e
.	.	.	32d}
.	.	.	16c#
.	.	.	{32ee
.	.	.	32dd
.	.	.	32cc#
.	.	.	32bn
.	.	.	32a
.	.	.	32g}
=69	=69	=69	=69
2.r	2.r	2.r	{16f
.	.	.	32d
.	.	.	32e
.	.	.	16f}
.	.	.	16a
.	.	.	16f
.	.	.	16d
.	.	.	16f
.	.	.	16a
.	.	.	{32b-
.	.	.	32ccn
.	.	.	32dd
.	.	.	32ee
.	.	.	32ff
.	.	.	32gg
.	.	.	32aa
.	.	.	32bb-
=70	=70	=70	=70
2.r	2.r	2.r	16ee}
.	.	.	{32c
.	.	.	32d
.	.	.	16e
.	.	.	16g}
.	.	.	16e
.	.	.	16c
.	.	.	16e
.	.	.	16g
.	.	.	{32a
.	.	.	32b-
.	.	.	32cc
.	.	.	32dd
.	.	.	32ee
.	.	.	32ff
.	.	.	32gg
.	.	.	32aa
=71	=71	=71	=71
2.r	2.r	2.r	16dd}
.	.	.	{32B-
.	.	.	32c
.	.	.	16d}
.	.	.	16f
.	.	.	16d
.	.	.	16B-
.	.	.	16d
.	.	.	16f
.	.	.	{32g
.	.	.	32a
.	.	.	32b-
.	.	.	32cc
.	.	.	32dd
.	.	.	32ee
.	.	.	32ff
.	.	.	32gg}
=72	=72	=72	=72
2.r	2.r	2.r	{32cc#
.	.	.	32bb-
.	.	.	32aa
.	.	.	32gg
.	.	.	32ff
.	.	.	32ee
.	.	.	32dd
.	.	.	32ccn}
.	.	.	{32b-
.	.	.	32a
.	.	.	32g
.	.	.	32f
.	.	.	32e
.	.	.	32d
.	.	.	32c#
.	.	.	32Bn}
.	.	.	{32A
.	.	.	32B
.	.	.	32c#
.	.	.	32d
.	.	.	32e
.	.	.	32f
.	.	.	32g
.	.	.	32e}
=73	=73	=73	=73
2.r	2.r	2.r	32f
.	.	.	32d
.	.	.	32e
.	.	.	32f
.	.	.	32g
.	.	.	32a
.	.	.	32bn
.	.	.	32cc#
.	.	.	32dd
.	.	.	32b
.	.	.	32cc#
.	.	.	32dd
.	.	.	32ee
.	.	.	32ff
.	.	.	32gg
.	.	.	32aa
.	.	.	16bb-
.	.	.	16d
.	.	.	16cnT
.	.	.	16B-
=74	=74	=74	=74
2.r	2.r	2.r	32c
.	.	.	32d
.	.	.	32e
.	.	.	32f#
.	.	.	32g
.	.	.	32a
.	.	.	32b-
.	.	.	32ccn
.	.	.	32dd
.	.	.	32a
.	.	.	32b-
.	.	.	32cc
.	.	.	32dd
.	.	.	32ee
.	.	.	32ff#
.	.	.	32gg
.	.	.	16aa
.	.	.	16c
.	.	.	16B-
.	.	.	16A
=75	=75	=75	=75
2.r	2.r	2.r	32B-
.	.	.	32d
.	.	.	32e
.	.	.	32f#
.	.	.	32g
.	.	.	32a
.	.	.	32b-
.	.	.	32cc
.	.	.	32dd
.	.	.	32g
.	.	.	32a
.	.	.	32b-
.	.	.	32cc
.	.	.	32dd
.	.	.	32ee
.	.	.	32ff#
.	.	.	32gg
.	.	.	32aa
.	.	.	32bb-
.	.	.	32aa
.	.	.	32gg
.	.	.	32ffn
.	.	.	32ee
.	.	.	32dd
=76	=76	=76	=76
2.r	2.r	2.r	32cc#
.	.	.	32aa
.	.	.	32gg
.	.	.	32ff
.	.	.	32ee
.	.	.	32dd
.	.	.	32cc#
.	.	.	32bn
.	.	.	32a
.	.	.	32b
.	.	.	32cc#
.	.	.	32dd
.	.	.	32ee
.	.	.	32ff
.	.	.	32gg
.	.	.	32aa
.	.	.	32bb-
.	.	.	32gg
.	.	.	32ee
.	.	.	32cc#
.	.	.	32a
.	.	.	32g
.	.	.	32f
.	.	.	32e
=77	=77	=77	=77
2.r	2.r	2.r	16d
.	.	.	16a
.	.	.	16dd
.	.	.	16ee
.	.	.	16ff
.	.	.	16dd
.	.	.	16b-
.	.	.	16a
.	.	.	{16g#
.	.	.	16bn
.	.	.	16dd}
.	.	.	16ff
=78	=78	=78	=78
2.r	2.r	2.r	16c
.	.	.	16e
.	.	.	16a
.	.	.	16cc
.	.	.	16ee
.	.	.	16cc
.	.	.	16a
.	.	.	16gn
.	.	.	{16f#
.	.	.	16a
.	.	.	16cc}
.	.	.	16ee-
=79	=79	=79	=79
2.r	2.r	2.r	16B-
.	.	.	16d
.	.	.	16g
.	.	.	16b-
.	.	.	16dd
.	.	.	16b-
.	.	.	16g
.	.	.	16fn
.	.	.	{16e
.	.	.	16g
.	.	.	16b-}
.	.	.	16cc#
=80	=80	=80	=80
2.r	2.r	2.r	16A
.	.	.	16d
.	.	.	16f
.	.	.	16a
.	.	.	16dd
.	.	.	16a
.	.	.	16f
.	.	.	16d
.	.	.	16A
.	.	.	16e
.	.	.	16g
.	.	.	16cc#
=81	=81	=81	=81
2.r	2.r	2.r	{16d
.	.	.	16bb-}
.	.	.	{16bb-
.	.	.	16gg#}
.	.	.	{16gg#
.	.	.	16ffn}
.	.	.	{16ff
.	.	.	16dd}
.	.	.	16dd
.	.	.	16bn
.	.	.	16g#
.	.	.	16e
=82	=82	=82	=82
2.r	2.r	2.r	{16c#
.	.	.	16aa}
.	.	.	{16aa
.	.	.	16ff#}
.	.	.	{16ff#
.	.	.	16ee-}
.	.	.	{16ee-
.	.	.	16ccn}
.	.	.	16cc
.	.	.	16a
.	.	.	16f#
.	.	.	16d
=83	=83	=83	=83
2.r	2.r	2.r	{16Bn
.	.	.	16gg}
.	.	.	{16gg
.	.	.	16ee-}
.	.	.	{16ee-
.	.	.	16cc#}
.	.	.	{16cc#
.	.	.	16b-}
.	.	.	16b-
.	.	.	16g
.	.	.	16en
.	.	.	16c#
=84	=84	=84	=84
2.r	2.r	2.r	{16A
.	.	.	16c#}
.	.	.	{16c#
.	.	.	16e}
.	.	.	{16e
.	.	.	32g
.	.	.	32f}
.	.	.	{16g
.	.	.	32b-
.	.	.	32a}
.	.	.	{16b-
.	.	.	32cc#
.	.	.	32dd
.	.	.	16een}
.	.	.	16g
=85	=85	=85	=85
2.r	2.r	2.r	{32f
.	.	.	32a
.	.	.	32bn
.	.	.	32cc#}
.	.	.	{32dd
.	.	.	32cc#
.	.	.	32b
.	.	.	32a}
.	.	.	{32ff
.	.	.	32ee
.	.	.	32dd
.	.	.	32cc#}
.	.	.	{32dd
.	.	.	32ee
.	.	.	32ff
.	.	.	32gg}
.	.	.	{32aa
.	.	.	32gg
.	.	.	32ff
.	.	.	32ee}
.	.	.	{32bb-
.	.	.	32aa
.	.	.	32gg
.	.	.	32ff}
=86	=86	=86	=86
2.r	2.r	2.r	{32ccn
.	.	.	32ee
.	.	.	32ff#
.	.	.	32gg#}
.	.	.	{32aa
.	.	.	32gg#
.	.	.	32ff#
.	.	.	32ee}
.	.	.	{32ccc
.	.	.	32bbn
.	.	.	32aa
.	.	.	32gg#}
.	.	.	{32aa
.	.	.	32bb
.	.	.	32ccc
.	.	.	32ddd}
.	.	.	{32eee
.	.	.	32ddd
.	.	.	32ccc
.	.	.	32bb}
.	.	.	{32fffn
.	.	.	32eee
.	.	.	32ddd
.	.	.	32ccc#}
=87	=87	=87	=87
2.r	2.r	2.r	{32ddd
.	.	.	32eee
.	.	.	32fff
.	.	.	32eee}
.	.	.	{32ddd
.	.	.	32fff
.	.	.	32eee
.	.	.	32ddd}
.	.	.	{32fff
.	.	.	32eee
.	.	.	32ddd
.	.	.	32fff}
.	.	.	{32eee
.	.	.	32ddd
.	.	.	32fff
.	.	.	32eee}
.	.	.	{32ddd
.	.	.	32ggg
.	.	.	32fff
.	.	.	32eee
.	.	.	32ddd
.	.	.	32cccn
.	.	.	32bb-
.	.	.	32aa}
=88	=88	=88	=88
2.r	2.r	2.r	{32gg
.	.	.	32aa
.	.	.	32bb-
.	.	.	32aa}
.	.	.	{32gg
.	.	.	32bb-
.	.	.	32aa
.	.	.	32gg}
.	.	.	{32bb-
.	.	.	32aa
.	.	.	32gg
.	.	.	32bb-}
.	.	.	{32aa
.	.	.	32gg
.	.	.	32bb-
.	.	.	32aa}
.	.	.	{32gg
.	.	.	32ff
.	.	.	32ee
.	.	.	32dd
.	.	.	32cc#
.	.	.	32bn
.	.	.	32a
.	.	.	32g}
=89	=89	=89	=89
4r	4r	4r	{32f
.	.	.	32d}
.	.	.	{32aa
.	.	.	32d}
.	.	.	{32f
.	.	.	32d}
.	.	.	{32aa
.	.	.	32d}
2d	2r	2f	2aa
=90	=90	=90	=90
2d	2.r	2e	2gg
4e	.	4cc#	4gg
=91	=91	=91	=91
2d	2.r	2d	2ff
4d	.	4a	4ff
=92	=92	=92	=92
2G	2.r	8b-	8ee
.	.	8a	8ff
.	.	8g	8ee
.	.	8f	8dd
4A	.	8e	8dd
.	.	8e	8cc#
=93	=93	=93	=93
4d	2.r	2.f	2.dd
4A	.	.	.
4B-	.	.	.
=94	=94	=94	=94
4c	2.r	2.f#	2.ee-
4B-	.	.	.
4A	.	.	.
=95	=95	=95	=95
4B-	2.r	4g	2.dd
4A	.	4fn	.
4G	.	4e	.
=96	=96	=96	=96
2.A	2.r	4f	2dd
.	.	4e	.
.	.	4g	4cc#
=97	=97	=97	=97
2.d	2.r	2.f	4dd
.	.	.	4a
.	.	.	4b-
=98	=98	=98	=98
2.d	2.r	2.f#	4cc
.	.	.	4b-
.	.	.	4a
=99	=99	=99	=99
4d	2.r	4g	4b-
4e	.	4cc#	4bb-
4fn	.	4dd	4aa
=100	=100	=100	=100
4g	2.r	4dd	8gg
.	.	.	8ff
2a	.	4dd	2ee
.	.	4cc#	.
=101	=101	=101	=101
2.d	2.r	4dd	2.ff
.	.	4a	.
.	.	4b-	.
=102	=102	=102	=102
2.d	2.r	4cc	2.ff#
.	.	4b-	.
.	.	4a	.
=103	=103	=103	=103
2d	2r	4b-	4gg
.	.	4a	4ffn
4c#	4g	4a	4ee
=104	=104	=104	=104
4d	4f	4a	4ff
2A	2e	2r	2cc#
=105	=105	=105	=105
4d	4f	2r	4dd
4d	4a	.	4ff
4d	4a	4ccn	4ff
=106	=106	=106	=106
2G	2g	2b-	4ff
.	.	.	4ee
4A	4f	4r	4ee-
=107	=107	=107	=107
2B-	2f	4r	4ee-
.	.	4bb-	4dd
4B-	4g	4dd	4een
=108	=108	=108	=108
4A	4a	4dd	4ee
2A	2e	2cc#	4aa
.	.	.	4gg
=109	=109	=109	=109
4d	4a	4r	4ff
2d	4a	4dd	2ff#
.	4r	4ccn	.
=110	=110	=110	=110
4d	2.r	4b-	4gg
4d	.	4bn	2gg#
4e	.	4dd	.
=111	=111	=111	=111
4f	2.r	4cc	4aa
4f#	.	4ee-	4ccc
4g	.	4dd	4bbn
=112	=112	=112	=112
4g#	2.r	4ff	4ddd
2a	.	2een	4ddd
.	.	.	4ccc#
=113	=113	=113	=113
4d	2.r	2.ff	2.dd
4b-	.	.	.
4a	.	.	.
=114	=114	=114	=114
4g#	2.r	2.ee	4ddd
4a	.	.	2ccc#
4gn	.	.	.
=115	=115	=115	=115
4f#	2.r	2.dd	4cccn
4g	.	.	2bbn
4fn	.	.	.
=116	=116	=116	=116
4e	2.r	4cc#	4bb-
4f	.	4dd	4aa
4e	.	4cc#	4gg
=117	=117	=117	=117
4d	4r	4dd	4ff#
4A	4a	4ccn	4ffn
4Bn	4g	4dd	4ff
=118	=118	=118	=118
4c	4g	4cc	4ee
4G	4g	2r	4ee-
4A	4f	.	4ee-
=119	=119	=119	=119
4B-	4f	2.r	4dd
4B-	4g	.	4dd
4A	4f	.	4dd
=120	=120	=120	=120
4G#	4e	2.r	4dd
2A	2e	.	4dd
.	.	.	4cc#
=121	=121	=121	=121
2.r	2.r	2.r	8d
.	.	.	{32ff
.	.	.	32ee
.	.	.	32dd
.	.	.	32ee
.	.	.	32dd
.	.	.	32ccn
.	.	.	32dd
.	.	.	32c
.	.	.	32b-
.	.	.	32cc
.	.	.	32b-
.	.	.	32a
.	.	.	32b-
.	.	.	32cc
.	.	.	32dd
.	.	.	32ee
.	.	.	16ff}
.	.	.	16d
=122	=122	=122	=122
2.r	2.r	2.r	8c
.	.	.	{32ee
.	.	.	32dd
.	.	.	32cc
.	.	.	32dd
.	.	.	32cc
.	.	.	32b-
.	.	.	32cc
.	.	.	32b-
.	.	.	32a
.	.	.	32b-
.	.	.	32a
.	.	.	32g
.	.	.	32a
.	.	.	32b-
.	.	.	32cc
.	.	.	32dd
.	.	.	16ee-}
.	.	.	16c
=123	=123	=123	=123
2.r	2.r	2.r	8B-
.	.	.	{32dd
.	.	.	32cc
.	.	.	32b-
.	.	.	32cc
.	.	.	32b-
.	.	.	32a
.	.	.	32b-
.	.	.	32a
.	.	.	32g
.	.	.	32a
.	.	.	32g
.	.	.	32f
.	.	.	32g
.	.	.	32a
.	.	.	32b-
.	.	.	32cc
.	.	.	16dd}
.	.	.	16B-
=124	=124	=124	=124
2.r	2.r	2.r	{32A
.	.	.	32a
.	.	.	32bn
.	.	.	32cc#
.	.	.	16dd}
.	.	.	16A
.	.	.	{32G
.	.	.	32a
.	.	.	32b
.	.	.	32cc#
.	.	.	16dd}
.	.	.	16G
.	.	.	{32A
.	.	.	32dd
.	.	.	32cc#
.	.	.	32b
.	.	.	16cc#}
.	.	.	16g
=125	=125	=125	=125
2.r	2.r	2.r	{16f
.	.	.	16e
.	.	.	16d
.	.	.	16c#
.	.	.	16d}
.	.	.	16f
.	.	.	16g
.	.	.	16a
.	.	.	16b-
.	.	.	16a
.	.	.	16b-
.	.	.	16g
=126	=126	=126	=126
4d	4g	4b-	4ee
2c#	2g	2a	4.ee
.	.	.	8ee
=127	=127	=127	=127
4d	4f	4a	4ff
2B-	2f	2r	4.dd
.	.	.	8dd
=128	=128	=128	=128
4G	4g	4dd	4bb-
4A	4f	4dd	4aa
4A	4e	4cc#	4gg
=129	=129	=129	=129
4d	4a	4dd	4gg
4d	4a	4dd	4ff#
4r	4r	4r	8c
.	.	.	8ffn
=130	=130	=130	=130
4Bn	4g	4dd	4ff
4c	4g	4cc	4ee
4r	4r	4r	8B-
.	.	.	8ee-
=131	=131	=131	=131
4A	4f	2.r	4ee-
4B-	4f	.	4dd
4r	4r	.	8A
.	.	.	8dd
=132	=132	=132	=132
4r	4r	2.r	8G#
.	.	.	8dd
2A	2e	.	4.cc#
.	.	.	8dd
=133	=133	=133	=133
!! Double barline; change of key from D minor to D major.
4d	2.r	2.r	4dd
2d	.	.	4.f#
.	.	.	8g
=134	=134	=134	=134
4c#	2.r	2.r	4e
2A	.	.	{4.f#
.	.	.	16g
.	.	.	16a}
=135	=135	=135	=135
4B	2.r	2.r	4d
2G	.	.	{4.e
.	.	.	16f#
.	.	.	16g}
=136	=136	=136	=136
4A	2.r	2.r	8f#
.	.	.	8e
2c#	.	.	4.e
.	.	.	8a
=137	=137	=137	=137
4d	4r	2.r	4f#
4.d	4.f#	.	8b
.	.	.	8a
.	.	.	8g
8d	8r	.	8f#
=138	=138	=138	=138
8c#	2.r	2.r	4e
8B	.	.	.
4.A	.	.	{16f#
.	.	.	16g
.	.	.	16a
.	.	.	16g
.	.	.	8f#}
8A	.	.	8e
=139	=139	=139	=139
8B	2.r	2.r	4d
8A	.	.	.
4.G	.	.	8e
.	.	.	16g
.	.	.	16f#
.	.	.	8e
8G	.	.	8d
=140	=140	=140	=140
4A	8g	2.r	8cc#
.	8f#	.	8dd
2A	2r	.	4.e
.	.	.	8a
=141	=141	=141	=141
4d	2.r	2.r	8f#
.	.	.	8e
4.d	.	.	8d
.	.	.	8e
.	.	.	8f#
8d	.	.	8g#
=142	=142	=142	=142
4c#	4e	2.r	8a
.	.	.	8b
4.A	4.e	.	8cc#
.	.	.	8dd
.	.	.	8b
8A	8gn	.	8cc#
=143	=143	=143	=143
4B	4f#	4r	8dd
.	.	.	8ff#
4.G	4.g	4.b	8ee
.	.	.	8dd
.	.	.	8cc#
8G	8g	8r	8b
=144	=144	=144	=144
4A	8f#	2.r	8a
.	8d	.	8b
4.A	8e	.	8cc#
.	8f#	.	8dd
.	8g	.	8ee
8A	8e	.	8cc#
=145	=145	=145	=145
8d	8f#	4r	4dd
8r	8e	.	.
2r	8d	4.dd	4.ff#
.	8e	.	.
.	8f#	.	.
.	8g	8dd	8ff#
=146	=146	=146	=146
2.r	8a	8cc#	4ee
.	8b	8r	.
.	8cc#	2r	4.aa
.	8a	.	.
.	8b	.	.
.	8cc#	.	8gg
=147	=147	=147	=147
2.r	8dd	2r	8ff#
.	8cc#	.	8ee
.	8b	.	8gg
.	8a	.	8ff#
.	8g	8dd	8bb
.	8f#	8b	8aa
=148	=148	=148	=148
2.r	8e	8cc#	8gg
.	8d	8dd	8ff#
.	2a	4dd	2ee
.	.	4cc#	.
=149	=149	=149	=149
2r	8d	2r	16dd
.	.	.	16cc#
.	8r	.	16b
.	.	.	16a
.	4r	.	{16g#
.	.	.	16b
.	.	.	16dd}
.	.	.	16ff#
8r	8r	8r	8ee
8d	8g#	8b	8ee
=150	=150	=150	=150
16c#	8a	8cc#	8ee
16d	.	.	.
16c#	8r	8r	8r
16B	.	.	.
{16A	4r	4r	4r
16c#	.	.	.
16e}	.	.	.
16gn	.	.	.
8f#	8r	8r	8r
8A#	8f#	8cc#	8ee
=151	=151	=151	=151
16B	8f#	2.r	8dd
16c#	.	.	.
16d	8r	.	8r
16B	.	.	.
{16G	4r	.	4r
16B	.	.	.
16d}	.	.	.
16f#	.	.	.
8e	8r	.	8r
8G#	8e	.	8dd
=152	=152	=152	=152
16A	16e	2.r	16cc#
8.r	8.r	.	16b
.	.	.	16a
.	.	.	16b
2r	2r	.	{16cc#
.	.	.	16ee
.	.	.	16gg}
.	.	.	16bb
.	.	.	16aa
.	.	.	16gg
.	.	.	16ff#
.	.	.	16ee
=153	=153	=153	=153
2.r	2.r	2.r	16ff#
.	.	.	16aa
.	.	.	16ff#
.	.	.	16dd
.	.	.	16a
.	.	.	16dd
.	.	.	16a
.	.	.	16f#
.	.	.	16d
.	.	.	16f#
.	.	.	16e
.	.	.	16d
=154	=154	=154	=154
2.r	2.r	2.r	16c#
.	.	.	16aa
.	.	.	16ee
.	.	.	16cc#
.	.	.	16a
.	.	.	16cc#
.	.	.	16a
.	.	.	16e
.	.	.	16c#
.	.	.	16e
.	.	.	16d
.	.	.	16c#
=155	=155	=155	=155
2.r	2.r	2.r	16B
.	.	.	16gg#
.	.	.	16dd
.	.	.	16b
.	.	.	16g#
.	.	.	16b
.	.	.	16g#
.	.	.	16e
.	.	.	16B
.	.	.	16d
.	.	.	16c#
.	.	.	16B
=156	=156	=156	=156
2.r	2.r	2.r	16A
.	.	.	16B
.	.	.	16c#
.	.	.	16d
.	.	.	16e
.	.	.	16c#
.	.	.	16A
.	.	.	16c#
.	.	.	16e
.	.	.	16gn
.	.	.	16f#
.	.	.	16e
=157	=157	=157	=157
2.r	2.r	2.r	16f#
.	.	.	16d
.	.	.	16A
.	.	.	16d
.	.	.	16f#
.	.	.	16d
.	.	.	16a
.	.	.	16f#
.	.	.	16dd
.	.	.	16a
.	.	.	16ff#
.	.	.	16dd
=158	=158	=158	=158
2.r	2.r	2.r	16aa
.	.	.	16ee
.	.	.	16cc#
.	.	.	16ee
.	.	.	16aa
.	.	.	16ee
.	.	.	16ccc#
.	.	.	16aa
.	.	.	16eee
.	.	.	16ccc#
.	.	.	16fff#
.	.	.	16ccc#
=159	=159	=159	=159
2.r	2.r	2.r	16ddd
.	.	.	16fff#
.	.	.	16ddd
.	.	.	16bb
.	.	.	16ff#
.	.	.	16bb
.	.	.	16dd
.	.	.	16ff#
.	.	.	16b
.	.	.	16dd
.	.	.	16cc#
.	.	.	16b
=160	=160	=160	=160
2.r	2.r	2.r	16cc#
.	.	.	16ee
.	.	.	16cc#
.	.	.	16a
.	.	.	16e
.	.	.	16a
.	.	.	16c#
.	.	.	16e
.	.	.	16A
.	.	.	16c#
.	.	.	16e
.	.	.	16g
=161	=161	=161	=161
2.r	2.r	2.r	16f#
.	.	.	16d
.	.	.	16aa
.	.	.	16aa
.	.	.	16aa
.	.	.	16ff#
.	.	.	16dd
.	.	.	16a
.	.	.	16f#
.	.	.	16d
.	.	.	16A
.	.	.	16d
=162	=162	=162	=162
2.r	2.r	2.r	16e
.	.	.	16c#
.	.	.	16aa
.	.	.	16aa
.	.	.	16aa
.	.	.	16ee
.	.	.	16cc#
.	.	.	16a
.	.	.	16e
.	.	.	16c#
.	.	.	16A
.	.	.	16c#
=163	=163	=163	=163
2.r	2.r	2.r	16d
.	.	.	16B
.	.	.	16aa
.	.	.	16aa
.	.	.	16aa
.	.	.	16ff#
.	.	.	16dd
.	.	.	16b
.	.	.	16dd
.	.	.	16gg#
.	.	.	16bb
.	.	.	16gg#
=164	=164	=164	=164
2.r	2.r	2.r	16aa
.	.	.	16ee
.	.	.	16aa
.	.	.	16aa
.	.	.	16aa
.	.	.	16cc#
.	.	.	16ee
.	.	.	16ee
.	.	.	16ee
.	.	.	16a
.	.	.	16cc#
.	.	.	16g
=165	=165	=165	=165
2.r	2.r	8r	16f#
.	.	.	16d
.	.	16a	16a
.	.	16a	16a
.	.	16a	16a
.	.	8.r	16f#
.	.	.	16d
.	.	.	16f#
.	.	4r	16a
.	.	.	16dd
.	.	.	16ff#
.	.	.	16B
=166	=166	=166	=166
2.r	2.r	8r	16c#
.	.	.	16e
.	.	16a	16a
.	.	16a	16a
.	.	16a	16a
.	.	8.r	16e
.	.	.	16c#
.	.	.	16e
.	.	4r	16a
.	.	.	16cc#
.	.	.	16ee
.	.	.	16A
=167	=167	=167	=167
2.r	2.r	8r	16B
.	.	.	16d
.	.	16a	16a
.	.	16a	16a
.	.	16a	16a
.	.	8.r	16d
.	.	.	16B
.	.	.	16d
.	.	4r	16g#
.	.	.	16b
.	.	.	16dd
.	.	.	16e
=168	=168	=168	=168
2.r	2.r	8r	16A
.	.	.	16e
.	.	16a	16a
.	.	16a	16a
.	.	16a	16a
.	.	8.r	16e
.	.	.	16a
.	.	.	16cc#
.	.	4r	16ee
.	.	.	16cc#
.	.	.	16a
.	.	.	16gn
=169	=169	=169	=169
2.r	2.r	4r	16f#
.	.	.	16A
.	.	.	16A
.	.	.	16A
.	.	8.r	16A
.	.	.	16aa
.	.	.	16aa
.	.	16dd	16ff#
.	.	16dd	16ff#
.	.	16a	16dd
.	.	16a	16dd
.	.	16dd	16ff#
=170	=170	=170	=170
2.r	2.r	16cc#	16ee
.	.	8.r	16A
.	.	.	16A
.	.	.	16A
.	.	8.r	16A
.	.	.	16aa
.	.	.	16aa
.	.	16cc#	16ee
.	.	16cc#	16ee
.	.	16a	16cc#
.	.	16a	16cc#
.	.	16cc#	16ee
=171	=171	=171	=171
2.r	2.r	16g#	16dd
.	.	8.r	16A
.	.	.	16A
.	.	.	16A
.	.	8.r	16A
.	.	.	16bb
.	.	.	16bb
.	.	16b	16gg#
.	.	16b	16gg#
.	.	16dd	16ee
.	.	16dd	16ee
.	.	16dd	16gg#
=172	=172	=172	=172
2.r	2.r	16cc#	16aa
.	.	8.r	16A
.	.	.	16A
.	.	.	16A
.	.	16r	16A
.	.	16a	16aa
.	.	16a	16aa
.	.	16a	16aa
.	.	16b	16aa
.	.	16b	16ggn
.	.	16cc#	16gg
.	.	16cc#	16gg
=173	=173	=173	=173
2.r	2.r	16dd	16ff#
.	.	16r	16d
.	.	16d	16d
.	.	16d	16d
.	.	16d	16d
.	.	16a	16a
.	.	16a	16a
.	.	16a	16a
.	.	16a	16b
.	.	16g	16b
.	.	16g	16cc#
.	.	16g	16cc#
=174	=174	=174	=174
2.r	2.r	16f#	16dd
.	.	16d	16d
.	.	16d	16d
.	.	16d	16d
.	.	16d	16d
.	.	16dd	16ddd
.	.	16dd	16ddd
.	.	16dd	16ddd
.	.	16ee	16ddd
.	.	16ee	16cccn
.	.	16ff#	16ccc
.	.	16ff#	16ccc
=175	=175	=175	=175
2.r	2.r	16gg	16bb
.	.	16d	16d
.	.	16d	16d
.	.	16d	16d
.	.	16d	16d
.	.	16gg	16bb
.	.	16gg	16bb
.	.	16gg	16bb
.	.	16gg	16ccc#
.	.	16ff#	16ddd
.	.	16ff#	16ddd
.	.	16ff#	16ddd
=176	=176	=176	=176
2.r	4r	16ff#	16gg
.	.	16ee	16gg
.	.	16ee	16gg
.	.	16ee	16gg
.	16r	16ee	16ff#
.	16f#	16dd	16ff
.	16f#	16dd	16ff
.	16f#	16dd	16ff
.	16g	16dd	16ee
.	16a	16cc#	16ee
.	16a	16cc#	16ee
.	16a	16cc#	16ee
=177	=177	=177	=177
2.r	4d	4dd	4ff#
.	2r	4.dd	4.ff#
.	.	8dd	8ff#
=178	=178	=178	=178
2.r	2.r	4dd	{8ff#
.	.	.	8ee}
.	.	{8dd	4.ee
.	.	8cc#	.
.	.	8b}	.
.	.	8a#	8ee
=179	=179	=179	=179
2.r	2.r	4b	{8ee
.	.	.	8dd}
.	.	8b	4.ccn
.	.	8an	.
.	.	8g	.
.	.	8f#	8cc
=180	=180	=180	=180
2.r	4.r	4g	8ccn
.	.	.	8b
.	.	8r	8cc#
.	8g	8a	8bb
.	8f#	8b	8aa
.	8e	8cc#	8gg
=181	=181	=181	=181
2.r	8d	4dd	4ff#
.	8f#	.	.
.	8b	4.dd	4.ff#
.	8a	.	.
.	8g	.	.
.	8f#	8dd	8ff#
=182	=182	=182	=182
2.r	8g	4dd	4ee
.	8e	.	.
.	8a	4.cc#	4.ee
.	8g	.	.
.	8f#	.	.
.	8e	8cc#	8ee
=183	=183	=183	=183
4r	8f#	8ccn	8aa
.	8d	8dd	8ff#
8G	8g	8dd	8bb
8r	8r	8ccn	8aa
4r	4r	8b	8gg
.	.	8a	8ff#
=184	=184	=184	=184
4r	2.r	8g	8ee
.	.	8f#	8dd
2A	.	2e	4.cc#
.	.	.	8dd
=185	=185	=185	=185
4A	2.r	4f#	4dd
4.d	.	4.f#	4.a
8d	.	8f#	8a
=186	=186	=186	=186
4cn	2.r	4f#	4a
2c	.	4.f#	4.a
.	.	8f#	8a
=187	=187	=187	=187
4B	2.r	4g	4b
2e	.	4.g	4.b
.	.	8g	8b
=188	=188	=188	=188
4A	2.r	8g	8cc#
.	.	8f#	8dd
2r	.	8e	4.dd
.	.	8d	.
.	.	4e	.
.	.	.	8cc#
=189	=189	=189	=189
4d	4r	4r	4dd
4.d	4.a	4.dd	4.ff#
8d	8a	8dd	8ff#
=190	=190	=190	=190
4cn	4d	4a	4ff#
4.c	4.d	4.a	4.ff#
8c	8d	8a	8ff#
=191	=191	=191	=191
4B	4g	4dd	4ff#
4.c#	4.g	4.a	4.ee
8c#	8g	8a	8ee
=192	=192	=192	=192
4d	4f#	4a	8ee
.	.	.	8dd
4A	8e	2r	4.dd
.	8f#	.	.
4r	4g	.	.
.	.	.	8cc#
=193	=193	=193	=193
2.r	8f#	4r	4dd
.	8e	.	.
.	4.d	4.dd	4.ff#
.	8d	8dd	8ff#
=194	=194	=194	=194
4e	2.r	4dd	4gg
4.f#	.	4.dd	4.aa
8f#	.	8dd	8aa
=195	=195	=195	=195
4g	2.r	4dd	4bb
4.g#	.	4.ee	4.bb
8g#	.	8ee	8bb
=196	=196	=196	=196
4a	2.r	8ee	8ccc#
.	.	8ff#	8ddd
2a	.	2ee	4ddd
.	.	.	4ccc#
=197	=197	=197	=197
4d	2.r	4ff#	4ddd
4.d	.	4.ff#	4.ddd
8d	.	8ff#	8ddd
=198	=198	=198	=198
2.r	4a	4ee	4ccc#
.	4.d	4.ff#	4.cccn
.	8d	8ff#	8ccc
=199	=199	=199	=199
2.r	4g	8gg	4bb
.	.	8dd	.
.	4.g#	4.dd	4.ee
.	8g#	8dd	8ee
=200	=200	=200	=200
4r	4a	4dd	8ee
.	.	.	8ff#
4.A	4.e	4.cc#	8gg
.	.	.	8bb
.	.	.	8aa
8A	8e	8cc#	8gg
=201	=201	=201	=201
4d	4r	4dd	4ff#
4c#	4d	4a	4ff#
4c#	4d	4a	4ff#
=202	=202	=202	=202
4B	4d	4b	4ff#
4B	4d	4b	4ff#
4A	4d	4b	4ff#
=203	=203	=203	=203
4G	4d	4b	4ee
4G	4e	4cc#	4aa
4G	4e	4cc#	4r
=204	=204	=204	=204
4G#	4e	4dd	4bb
4A	4e	4dd	8ee
.	.	.	8ff#
4A	4e	4cc#	4ggn
=205	=205	=205	=205
2.r	4d	4dd	4gg
.	4d	8a	4ff#
.	.	8b	.
.	4d	4ccn	4ff#
=206	=206	=206	=206
4G	4d	4b	4ff#
4G	4e	8b	4ee
.	.	8cc#	.
4G#	4e	4dd	4ee
=207	=207	=207	=207
4A	4e	4dd	4ee
4A	8e	4cc#	4ee
.	8f#	.	.
4A#	4g	4cc#	4ee
=208	=208	=208	=208
8B	8f#	8r	8dd
8G	8e	8dd	8bb
2An	2e	2r	4.cc#
.	.	.	8dd
=209	=209	=209	=209
!! Double barline; key change from D major to D minor.
2.r	4d	4r	4dd
.	2d	2f	4.b-
.	.	.	8b-
=210	=210	=210	=210
2.r	8.c	8.e	8.b-
.	16r	16r	16ee
.	4.r	4.r	{16b-
.	.	.	16g
.	.	.	16a}
.	.	.	16e
.	.	.	8c
.	8c	8e	8a
=211	=211	=211	=211
2.r	8.B-	8.d	8.a
.	16r	16r	16dd
.	4.r	2r	{16a
.	.	.	16f#
.	.	.	16g}
.	.	.	16d
.	.	.	8B-
.	8B-	.	8g
=212	=212	=212	=212
2.r	8.A	2r	8.g
.	16r	.	16ee
.	4.r	.	{16cc#
.	.	.	16a
.	.	.	16b-}
.	.	.	16g
.	.	8r	8c#
.	8c#	8e	8a
=213	=213	=213	=213
2.r	8.d	2.r	8.f
.	16r	.	16d
.	2r	.	16f
.	.	.	16a
.	.	.	16dd
.	.	.	16cc#
.	.	.	{16dd
.	.	.	16ee
.	.	.	16ff}
.	.	.	16a
=214	=214	=214	=214
8.G	8.d	8.b-	8.ff
16r	16d	16r	16r
2r	16g	2r	2r
.	16b-	.	.
.	16ee-	.	.
.	16dd	.	.
.	{16ee-	.	.
.	16ccn	.	.
.	16f}	.	.
.	16A	.	.
=215	=215	=215	=215
2.r	8.B-	8.f	8.ee-
.	16r	16r	16cc#
.	2r	2r	16dd
.	.	.	16a
.	.	.	16b-
.	.	.	16f#
.	.	.	{16g
.	.	.	16d
.	.	.	16e-}
.	.	.	16g
=216	=216	=216	=216
2.r	8A	8g	8cc#
.	8G	8fn	8dd
.	8.A	8.en	8.dd
.	16r	16r	16bn
.	4r	4r	{16cc#
.	.	.	16ee
.	.	.	16gg}
.	.	.	16a
=217	=217	=217	=217
2.r	2.r	2.r	{16d
.	.	.	16a
.	.	.	16cc#}
.	.	.	16gg
.	.	.	{16ff
.	.	.	16dd
.	.	.	16cc#
.	.	.	16dd}
.	.	.	{16d
.	.	.	16dd
.	.	.	16cc#
.	.	.	16dd}
=218	=218	=218	=218
2.r	2.r	2.r	{16e
.	.	.	16g
.	.	.	16cc#}
.	.	.	16aa
.	.	.	{16gg
.	.	.	16dd
.	.	.	16cc#
.	.	.	16dd}
.	.	.	{16e
.	.	.	16dd
.	.	.	16cc#
.	.	.	16dd}
=219	=219	=219	=219
2.r	2.r	2.r	{16f
.	.	.	16a
.	.	.	16cc#}
.	.	.	16bb-
.	.	.	{16aa
.	.	.	16dd
.	.	.	16cc#
.	.	.	16dd}
.	.	.	{16f
.	.	.	16dd
.	.	.	16cc#
.	.	.	16dd}
=220	=220	=220	=220
2.r	2.r	2.r	{16g
.	.	.	16b-
.	.	.	16dd}
.	.	.	16bb-
.	.	.	{16ee
.	.	.	16dd
.	.	.	16cc#
.	.	.	16dd}
.	.	.	16a
.	.	.	16dd
.	.	.	16cc#
.	.	.	16ee
=221	=221	=221	=221
2.r	2.r	2.r	16ff
.	.	.	16dd
.	.	.	{16a
.	.	.	16g
.	.	.	16f}
.	.	.	16a
.	.	.	{16d
.	.	.	16c
.	.	.	16Bn}
.	.	.	16g
.	.	.	16dd
.	.	.	16ff
=222	=222	=222	=222
2.r	2.r	2.r	16ee
.	.	.	16cc
.	.	.	{16g
.	.	.	16f
.	.	.	16e}
.	.	.	16g
.	.	.	{16c
.	.	.	16B-
.	.	.	16A}
.	.	.	16f
.	.	.	16cc
.	.	.	16ee-
=223	=223	=223	=223
2.r	2.r	2.r	16dd
.	.	.	16b-
.	.	.	{16f
.	.	.	16e-
.	.	.	16d}
.	.	.	16f
.	.	.	{16B-
.	.	.	16A
.	.	.	16G}
.	.	.	16c#
.	.	.	16en
.	.	.	16b-
=224	=224	=224	=224
2.r	2.r	2.r	{16a
.	.	.	16f
.	.	.	16d}
.	.	.	16b-
.	.	.	16g
.	.	.	16e
.	.	.	16c#
.	.	.	16e
.	.	.	16A
.	.	.	16g
.	.	.	16f
.	.	.	16e
=225	=225	=225	=225
2.r	2.r	2.r	16d
.	.	.	16a
.	.	.	16bn
.	.	.	16cc#
.	.	.	16dd
.	.	.	16ff
.	.	.	16gg
.	.	.	16aa
.	.	.	16bb-
.	.	.	{32g
.	.	.	32f
.	.	.	32e
.	.	.	32f
.	.	.	16g}
=226	=226	=226	=226
2.r	2.r	2.r	16c
.	.	.	16g
.	.	.	16a
.	.	.	16b-
.	.	.	16ccn
.	.	.	16ee
.	.	.	16ff
.	.	.	16gg
.	.	.	16aa
.	.	.	{32f
.	.	.	32e
.	.	.	32d
.	.	.	32e
.	.	.	16f}
=227	=227	=227	=227
2.r	2.r	2.r	16B-
.	.	.	{32ddd
.	.	.	32ccc
.	.	.	32bb-
.	.	.	32ccc
.	.	.	16ddd}
.	.	.	16gg
.	.	.	{32bb-
.	.	.	32aa
.	.	.	32gg
.	.	.	32aa
.	.	.	16bb-}
.	.	.	16ee
.	.	.	{32gg
.	.	.	32ff
.	.	.	32ee
.	.	.	32ff
.	.	.	16gg}
=228	=228	=228	=228
2.r	2.r	2.r	{16cc#
.	.	.	32ee
.	.	.	32dd
.	.	.	32cc#
.	.	.	32dd
.	.	.	32ee
.	.	.	32cc#}
.	.	.	16g
.	.	.	{32b-
.	.	.	32a
.	.	.	32g
.	.	.	32a
.	.	.	32b-
.	.	.	32g}
.	.	.	{32e
.	.	.	32d
.	.	.	32c#
.	.	.	32d
.	.	.	32e
.	.	.	32f
.	.	.	32g
.	.	.	32e}
=229	=229	=229	=229
2.r	2.r	16d	{16f
.	.	16r	16a}
.	.	16a	16r
.	.	16r	16a
.	.	16b-	16r
.	.	16r	16a
.	.	16a	16r
.	.	16r	16a
.	.	16g	16r
.	.	16r	16a
.	.	16f	16r
.	.	16r	16a
=230	=230	=230	=230
2.r	2.r	16c	{16e
.	.	16r	16a}
.	.	16b-	16r
.	.	16r	16a
.	.	16a	16r
.	.	16r	16a
.	.	16g	16r
.	.	16r	16a
.	.	16f	16r
.	.	16r	16a
.	.	16e	16r
.	.	16r	16a
=231	=231	=231	=231
2.r	2.r	16B-	{16d
.	.	16r	16a}
.	.	16a	16r
.	.	16r	16a
.	.	16g	16r
.	.	16r	16a
.	.	16f	16r
.	.	16r	16a
.	.	16e	16r
.	.	16r	16a
.	.	16d	16r
.	.	16r	16a
=232	=232	=232	=232
2.r	2.r	16A	{16e
.	.	16r	16a}
.	.	16f	16r
.	.	16r	16a
.	.	16g	16r
.	.	16r	16a
.	.	16b-	16r
.	.	16r	16a
.	.	16a	16r
.	.	16r	16a
.	.	16g	16r
.	.	16r	16a
=233	=233	=233	=233
2.r	2.r	16d	{16f
.	.	16r	16a}
.	.	16a	16r
.	.	16r	16a
.	.	16g#	16r
.	.	16r	16a
.	.	16gn	16r
.	.	16r	16a
.	.	16f#	16r
.	.	16r	16a
.	.	16fn	16r
.	.	16r	16a
=234	=234	=234	=234
2.r	2.r	16c	{16e
.	.	16r	16a}
.	.	16g	16r
.	.	16r	16a
.	.	16f#	16r
.	.	16r	16a
.	.	16f	16r
.	.	16r	16a
.	.	16e	16r
.	.	16r	16a
.	.	16e	16r
.	.	16r	16a
=235	=235	=235	=235
2.r	2.r	16B-	{16d
.	.	16r	16a}
.	.	16e	16r
.	.	16r	16a
.	.	16f	16r
.	.	16r	16a
.	.	16f#	16r
.	.	16r	16a
.	.	16g	16r
.	.	16r	16a
.	.	16g#	16r
.	.	16r	16a
=236	=236	=236	=236
2.r	16A	16a	16r
.	16r	16r	16a
.	16Bn	16a	16r
.	16r	16r	16a
.	16c	16a	16r
.	16r	16r	16a
.	16c#	16a	16r
.	16r	16r	16a
.	16d	16bn	16r
.	16r	16r	16a
.	16e	16cc#	16r
.	16r	16r	16a
=237	=237	=237	=237
2.r	16f	16dd	16r
.	16r	16r	16a
.	16d	16ccn	16r
.	16r	16r	16a
.	16g	16b-	16r
.	16r	16r	16a
.	16f	16b-	16r
.	16r	16r	16a
.	16e	16b-	16r
.	16r	16r	16a
.	16d	16b-	16r
.	16r	16r	16a
=238	=238	=238	=238
2.r	16e	16b-	16r
.	16r	16r	16a
.	16c	16b-	16r
.	16r	16r	16a
.	16f	16a	16r
.	16r	16r	16a
.	16e	16a	16r
.	16r	16r	16a
.	16d	16a	16r
.	16r	16r	16a
.	16c	16a	16r
.	16r	16r	16a
=239	=239	=239	=239
2.r	16d	16a	16r
.	16r	16r	16a
.	16Bn	16a	16r
.	16r	16r	16a
.	16e	16g	16r
.	16r	16r	16a
.	16d	16g	16r
.	16r	16r	16a
.	16c#	16g	16r
.	16r	16r	16a
.	16B	16g	16r
.	16r	16r	16a
=240	=240	=240	=240
2.r	16c#	16g	16r
.	16r	16r	16a
.	16c#	16e	16r
.	16r	16r	16a
.	16c#	16a	16r
.	16r	16r	16a
.	16A	16g	16r
.	16r	16r	16a
.	16Bn	16f	16r
.	16r	16r	16a
.	16c#	16e	16r
.	16r	16r	16a
=241	=241	=241	=241
2.r	16d	2.r	{16f
.	8.r	.	16a}
.	.	.	{24d
.	.	.	24f
.	.	.	24a}
.	2r	.	{24f
.	.	.	24a
.	.	.	24dd}
.	.	.	{24a
.	.	.	24dd
.	.	.	24ff}
.	.	.	{24b-
.	.	.	24dd
.	.	.	24gg}
.	.	.	{24g
.	.	.	24dd
.	.	.	24bb-}
=242	=242	=242	=242
2.r	2.r	2.r	{24e
.	.	.	24cc
.	.	.	24bb-}
.	.	.	{24c
.	.	.	24e
.	.	.	24g}
.	.	.	{24e
.	.	.	24g
.	.	.	24cc}
.	.	.	{24g
.	.	.	24cc
.	.	.	24ee}
.	.	.	{24a
.	.	.	24cc
.	.	.	24ee}
.	.	.	{24f
.	.	.	24cc
.	.	.	24aa}
=243	=243	=243	=243
2.r	2.r	2.r	24d
.	.	.	{24aa
.	.	.	24gg
.	.	.	24ff}
.	.	.	{24ff
.	.	.	24ee
.	.	.	24dd}
.	.	.	{24dd
.	.	.	24ccn
.	.	.	24b-}
.	.	.	{24b-
.	.	.	24a
.	.	.	24g}
.	.	.	{24b-
.	.	.	24cc
.	.	.	24dd
.	.	.	24ee
.	.	.	24ff}
=244	=244	=244	=244
2.r	2.r	2.r	{24en
.	.	.	24cc#
.	.	.	24bb-}
.	.	.	{24f
.	.	.	24dd
.	.	.	24aa}
.	.	.	{24g
.	.	.	24een
.	.	.	24gg}
.	.	.	{24g#
.	.	.	24dd
.	.	.	24ff}
.	.	.	{24a
.	.	.	24dd
.	.	.	24ee}
.	.	.	{24a
.	.	.	24cc#
.	.	.	24ee}
=245	=245	=245	=245
2.r	2.r	2.r	24d
.	.	.	{24aa
.	.	.	24gg
.	.	.	24ff}
.	.	.	{24ff
.	.	.	24ee
.	.	.	24dd}
.	.	.	{24dd
.	.	.	24ccn
.	.	.	24b-}
.	.	.	{24b-
.	.	.	24a
.	.	.	24g}
.	.	.	{24b-
.	.	.	24cc
.	.	.	24dd
.	.	.	24ee
.	.	.	24ff}
=246	=246	=246	=246
2.r	2.r	2.r	24c
.	.	.	{24gg
.	.	.	24ff
.	.	.	24ee}
.	.	.	{24ee
.	.	.	24dd
.	.	.	24cc}
.	.	.	{24cc
.	.	.	24b-
.	.	.	24a}
.	.	.	{24a
.	.	.	24g
.	.	.	24f}
.	.	.	{24a
.	.	.	24b-
.	.	.	24cc
.	.	.	24dd
.	.	.	24ee-}
=247	=247	=247	=247
2.r	2.r	2.r	24B-
.	.	.	{24ff
.	.	.	24ee-
.	.	.	24dd}
.	.	.	{24dd
.	.	.	24cc
.	.	.	24b-}
.	.	.	{24b-
.	.	.	24a
.	.	.	24g}
.	.	.	{24g
.	.	.	24f
.	.	.	24en}
.	.	.	{24e
.	.	.	24d
.	.	.	24c#}
.	.	.	{24c#
.	.	.	24Bn
=248	=248	=248	=248
2.r	2.r	2.r	16a}
.	.	.	{32Bn
.	.	.	32c#
.	.	.	32d
.	.	.	32e
.	.	.	32f
.	.	.	32g
.	.	.	32a
.	.	.	32bn
.	.	.	32cc#
.	.	.	32dd
.	.	.	32een
.	.	.	32ff
.	.	.	32gg
.	.	.	32ff
.	.	.	32ee
.	.	.	32dd
.	.	.	32cc#
.	.	.	32b
.	.	.	32a
.	.	.	32g
.	.	.	32f
.	.	.	32e
=249	=249	=249	=249
4r	4r	2.r	8d}
.	.	.	8r
2d	2f	.	4.a
.	.	.	8a
=250	=250	=250	=250
4d	4g	4b-	4ee
2c#	2g	2a	4.ee
.	.	.	8ee
=251	=251	=251	=251
4d	4f	4a	4ff
2B-	2f	2r	4.dd
.	.	.	8cc
=252	=252	=252	=252
4G	4g	2.r	4b-
4A	4f	.	4a
4c#	4r	.	16g
.	.	.	{16f
.	.	.	16e
.	.	.	16f}
=253	=253	=253	=253
8d	4r	2.r	16g
.	.	.	{16e
8r	.	.	16f
.	.	.	16d}
4d	4f	.	4b-
4cn	4f#	.	4a
=254	=254	=254	=254
4B-	4g	2.r	4dd
4A	4f#	.	4cc
4G	4g	.	4b-
=255	=255	=255	=255
2r	2.r	2.r	{16c#
.	.	.	16e
.	.	.	16g
.	.	.	16b-
.	.	.	16a
.	.	.	16g
.	.	.	16ee
.	.	.	16g}
4d	.	.	[4fn
=256	=256	=256	=256
4G	2.r	2.r	8f]
.	.	.	8e
2A	.	.	4.e
.	.	.	8d
=257	=257	=257	=257
2.d	2.r	2.r	2.d
==	==	==	==
*-	*-	*-	*-
